X: 28795
T: My Love's On A Train
R: slip jig
M: 9/8
K: Eminor
|:BAB efd e2d|BAB g2a f2d|BAB efd e2d|AAA ABG FED:|
|:EDE BcA B2G|EDE B2d AFD|EDE BcA B2G|FAF FAG FED:|

